X:4081
T:May Day
O:england
M:4/4
L:1/8
K:A
agae ceAc | dBcA GBBg | agae ceAc | dBcA EAA2:|
|:cAeA fAeA | dBcA GBBd | cedf egae | dcBA EAA2:|


